icons/info.svg

<svg width="24" height="24" viewBox="0 0 24 24" fill="none" xmlns="http://www.w3.org/2000/svg">
<path fill-rule="evenodd" clip-rule="evenodd" d="M12 4C7.58172 4 4 7.58172 4 12C4 16.4183 7.58172 20 12 20C16.4183 20 20 16.4183 20 12C20 7.58172 16.4183 4 12 4ZM2 12C2 6.47715 6.47715 2 12 2C17.5228 2 22 6.47715 22 12C22 17.5228 17.5228 22 12 22C6.47715 22 2 17.5228 2 12ZM11 8C11 7.44772 11.4477 7 12 7H12.01C12.5623 7 13.01 7.44772 13.01 8C13.01 8.55228 12.5623 9 12.01 9H12C11.4477 9 11 8.55228 11 8ZM13 11.5C13 10.9477 12.5523 10.5 12 10.5C11.4477 10.5 11 10.9477 11 11.5V16.5C11 17.0523 11.4477 17.5 12 17.5C12.5523 17.5 13 17.0523 13 16.5V11.5Z" fill="#333333"/>
</svg>

<svg xmlns="http://www.w3.org/2000/svg" width="24" height="24" fill="none" viewBox="0 0 24 24">
  <path fill="#333" fill-rule="evenodd" d="M12 4a8 8 0 100 16 8 8 0 000-16zM2 12C2 6.477 6.477 2 12 2s10 4.477 10 10-4.477 10-10 10S2 17.523 2 12zm9-4a1 1 0 011-1h.01a1 1 0 110 2H12a1 1 0 01-1-1zm2 3.5a1 1 0 10-2 0v5a1 1 0 102 0v-5z"/>
</svg>
